www/svg/bus.svg

<?xml version="1.0" encoding="utf-8"?>
<svg xmlns="http://www.w3.org/2000/svg" viewBox="0 0 448 512">
  <path d="M 400 446 C 427.6 438.9 20.4 438.9 48 446 L 48 480 C 48 497.7 62.3 512 80 512 L 96 512 C 113.7 512 128 497.7 128 480 L 128 448 L 320 448 L 320 480 C 320 497.7 334.3 512 352 512 L 368 512 C 385.7 512 400 497.7 400 480 L 400 446 Z" style="fill: rgb(169, 169, 169);"/>
  <path d="M 96 0 C 43 0 0 43 0 96 L 0 384 C 0 413.8 20.4 438.9 48 446 L 128 448 L 320 448 L 400 446 C 427.6 438.9 448 413.8 448 384 L 448 96 C 448 43 405 0 352 0 L 96 0 Z M 64 176 C 64 158.3 78.3 144 96 144 L 200 144 L 200 256 L 96 256 C 78.3 256 64 241.7 64 224 L 64 176 Z M 248 256 L 248 144 L 352 144 C 369.7 144 384 158.3 384 176 L 384 224 C 384 241.7 369.7 256 352 256 L 248 256 Z M 96 320 C 120.634 320 136.03 346.667 123.713 368 C 117.997 377.901 107.432 384 96 384 C 71.366 384 55.97 357.333 68.287 336 C 74.003 326.099 84.568 320 96 320 Z M 352 320 C 376.634 320 392.03 346.667 379.713 368 C 373.997 377.901 363.432 384 352 384 C 327.366 384 311.97 357.333 324.287 336 C 330.003 326.099 340.568 320 352 320 Z M 65.471 72 C 65.471 58.7 76.171 48 89.471 48 L 364.195 47.53 C 377.495 47.53 388.195 58.23 388.195 71.53 C 388.195 84.83 377.495 95.53 364.195 95.53 L 89.471 96 C 76.171 96 65.471 85.3 65.471 72 Z" style="fill: rgb(255, 255, 255);"/>
  <text style="fill: rgb(255, 0, 0); font-family: Arial, sans-serif; font-size: 79px; font-weight: 700; white-space: pre;" x="145.748" y="346.484">RTD</text>
</svg>

<svg xmlns="http://www.w3.org/2000/svg" viewBox="0 0 448 512">
    <!--!Font Awesome Free v7.1.0 by @fontawesome - https://fontawesome.com License - https://fontawesome.com/license/free Copyright 2026 Fonticons, Inc.-->
    <path d="M96 0C43 0 0 43 0 96L0 384c0 29.8 20.4 54.9 48 62l0 34c0 17.7 14.3 32 32 32l16 0c17.7 0 32-14.3 32-32l0-32 192 0 0 32c0 17.7 14.3 32 32 32l16 0c17.7 0 32-14.3 32-32l0-34c27.6-7.1 48-32.2 48-62l0-288c0-53-43-96-96-96L96 0zM64 176c0-17.7 14.3-32 32-32l104 0 0 112-104 0c-17.7 0-32-14.3-32-32l0-48zm184 80l0-112 104 0c17.7 0 32 14.3 32 32l0 48c0 17.7-14.3 32-32 32l-104 0zM96 320a32 32 0 1 1 0 64 32 32 0 1 1 0-64zm256 0a32 32 0 1 1 0 64 32 32 0 1 1 0-64zM152 72c0-13.3 10.7-24 24-24l96 0c13.3 0 24 10.7 24 24s-10.7 24-24 24l-96 0c-13.3 0-24-10.7-24-24z"/>
</svg>
